svgs/unfold.svg

<svg xmlns="http://www.w3.org/2000/svg" viewBox="0 0 192 192"><path d="M58.56 154.482c-3.229-.588-9.296-2.965-13.483-5.282-9.399-5.203-19.558-16.92-23.983-27.663C6.287 85.591 26.187 43.03 60.439 37.39L68.876 36l13.294 8.659c7.312 4.762 13.647 8.658 14.077 8.658.431 0 6.56-3.799 13.62-8.442 14.302-9.406 15.835-9.75 27.764-6.232 22.64 6.678 38.338 30.218 38.338 57.489 0 16.167-4.688 29.52-14.354 40.887-8.906 10.473-17.367 15.39-30.422 17.679L123.767 156l-13.849-9.131-13.849-9.132-13.526 9.047c-7.439 4.976-14.558 8.984-15.819 8.906-1.262-.077-4.935-.621-8.164-1.208Zm5.337-25.096c0-16.202.088-16.875 2.507-18.995 1.379-1.209 12.881-8.983 25.56-17.274 13.482-8.817 22.659-15.522 22.104-16.151-.522-.592-11.183-7.781-23.692-15.977-24.163-15.83-25.207-16.234-34.108-13.181-7.499 2.571-11.437 5.215-17.635 11.839-10.371 11.083-14.822 23.629-14.009 39.49 1.189 23.207 18.107 43.843 38.472 46.925.44.067.801-7.438.801-16.676Zm72.916 14.366c13.528-4.721 24.03-16.601 29.157-32.983 1.923-6.146 1.984-22.529.108-29.11-4.933-17.309-19.761-32.524-34.295-35.189l-3.845-.705V79.88l-5.604 3.986c-3.082 2.192-14.61 9.897-25.618 17.122-12.279 8.06-19.498 13.468-18.678 13.994.734.472 11.662 7.679 24.283 16.017 12.622 8.338 23.979 15.165 25.238 15.172 1.259.007 5.423-1.082 9.254-2.419Zm-49.837-11.693c-.282-.317-3.668-2.662-7.526-5.209l-7.015-4.632v20.225l7.526-4.903c4.139-2.697 7.296-5.163 7.015-5.481Zm32.218-77.506-.329-4.795-6.671 4.455c-3.669 2.45-6.671 4.76-6.671 5.134 0 .374 3.002 2.685 6.671 5.135l6.671 4.455.329-4.795c.18-2.637.18-6.952 0-9.589Z"/></svg>

<svg
    xmlns="http://www.w3.org/2000/svg"
    viewBox="0 0 192 192"
    id="vector">
    <path
        id="path"
        d="M 58.56 154.482 C 55.331 153.894 49.264 151.517 45.077 149.2 C 35.678 143.997 25.519 132.28 21.094 121.537 C 6.287 85.591 26.187 43.03 60.439 37.39 L 68.876 36 L 82.17 44.659 C 89.482 49.421 95.817 53.317 96.247 53.317 C 96.678 53.317 102.807 49.518 109.867 44.875 C 124.169 35.469 125.702 35.125 137.631 38.643 C 160.271 45.321 175.969 68.861 175.969 96.132 C 175.969 112.299 171.281 125.652 161.615 137.019 C 152.709 147.492 144.248 152.409 131.193 154.698 L 123.767 156 L 109.918 146.869 L 96.069 137.737 L 82.543 146.784 C 75.104 151.76 67.985 155.768 66.724 155.69 C 65.462 155.613 61.789 155.069 58.56 154.482 Z M 63.897 129.386 C 63.897 113.184 63.985 112.511 66.404 110.391 C 67.783 109.182 79.285 101.408 91.964 93.117 C 105.446 84.3 114.623 77.595 114.068 76.966 C 113.546 76.374 102.885 69.185 90.376 60.989 C 66.213 45.159 65.169 44.755 56.268 47.808 C 48.769 50.379 44.831 53.023 38.633 59.647 C 28.262 70.73 23.811 83.276 24.624 99.137 C 25.813 122.344 42.731 142.98 63.096 146.062 C 63.536 146.129 63.897 138.624 63.897 129.386 Z M 136.813 143.752 C 150.341 139.031 160.843 127.151 165.97 110.769 C 167.893 104.623 167.954 88.24 166.078 81.659 C 161.145 64.35 146.317 49.135 131.783 46.47 L 127.938 45.765 L 127.938 79.88 L 122.334 83.866 C 119.252 86.058 107.724 93.763 96.716 100.988 C 84.437 109.048 77.218 114.456 78.038 114.982 C 78.772 115.454 89.7 122.661 102.321 130.999 C 114.943 139.337 126.3 146.164 127.559 146.171 C 128.818 146.178 132.982 145.089 136.813 143.752 Z M 86.976 132.059 C 86.694 131.742 83.308 129.397 79.45 126.85 L 72.435 122.218 L 72.435 142.443 L 79.961 137.54 C 84.1 134.843 87.257 132.377 86.976 132.059 Z M 119.194 54.553 L 118.865 49.758 L 112.194 54.213 C 108.525 56.663 105.523 58.973 105.523 59.347 C 105.523 59.721 108.525 62.032 112.194 64.482 L 118.865 68.937 L 119.194 64.142 C 119.374 61.505 119.374 57.19 119.194 54.553 Z"
        fill="#000000"
        stroke-width="12"/>
</svg>
